dist/img/home/intro_card_1.svg

<svg width="80" height="56" viewBox="0 0 80 56" fill="none" xmlns="http://www.w3.org/2000/svg">
<path d="M24 54.6667V47.4468H48M48 54.6667V40H36.233V42.7978M36.233 47.4436V54.6634" stroke="#6B3D90" stroke-width="2" stroke-linecap="round" stroke-linejoin="round"/>
<path d="M7.16378 49.6427V16.497L35.8946 1.33331L64.8061 16.7591V54.6667M2.6665 54.6667H69.4877M74.2614 54.6667H78.6665M55.5989 54.6667V26.8682H16.13V54.6667M21.2084 32.6274H50.8855M19.4329 20.4045H25.8581M32.6519 20.4045H39.077M46.1153 20.4045H52.5405" stroke="#6C757D" stroke-width="2" stroke-linecap="round" stroke-linejoin="round"/>
</svg>

<svg width="80" height="56" viewBox="0 0 80 56" fill="none" xmlns="http://www.w3.org/2000/svg"><path d="M24 54.667v-7.22h24m0 7.22V40H36.233v2.798m0 4.646v7.22" stroke="#6B3D90" stroke-width="2" stroke-linecap="round" stroke-linejoin="round"/><path d="M7.164 49.643V16.497l28.73-15.164L64.807 16.76v37.908m-62.14 0h66.822m4.773 0h4.406m-23.068 0v-27.8H16.13v27.799m5.078-22.04h29.678M19.433 20.404h6.425m6.794 0h6.425m7.038 0h6.425" stroke="#6C757D" stroke-width="2" stroke-linecap="round" stroke-linejoin="round"/></svg>
